packages/kaspersky-hexa-ui-icons/src/iconsSVGs/32/DataCleaner.svg

<svg width="32" height="32" viewBox="0 0 32 32" fill="none" xmlns="http://www.w3.org/2000/svg">
<path fill-rule="evenodd" clip-rule="evenodd" d="M19 5V14H20.4384C21.815 14 23.015 14.9369 23.3489 16.2724L25.8489 26.2724C26.3222 28.1658 24.8902 30 22.9384 30H9.06155C7.10984 30 5.67776 28.1658 6.15112 26.2724L8.65112 16.2724C8.985 14.9369 10.1849 14 11.5616 14H13V5C13 3.34315 14.3431 2 16 2C17.6569 2 19 3.34315 19 5ZM15 5C15 4.44772 15.4477 4 16 4C16.5523 4 17 4.44772 17 5V14H15V5ZM11.5616 16H20.4384C20.8973 16 21.2973 16.3123 21.4086 16.7575L21.9692 19H10.0308L10.5914 16.7575C10.7027 16.3123 11.1027 16 11.5616 16ZM9.53078 21L8.09141 26.7575C7.93362 27.3886 8.41098 28 9.06155 28H11V26C11 25.4477 11.4477 25 12 25C12.5523 25 13 25.4477 13 26V28H22.9384C23.589 28 24.0664 27.3886 23.9086 26.7575L22.4692 21H9.53078Z" fill="black"/>
</svg>

<svg xmlns="http://www.w3.org/2000/svg" width="32" height="32" fill="none" viewBox="0 0 32 32"><path fill="#000" fill-rule="evenodd" d="M19 5v9h1.4384c1.3766 0 2.5766.9369 2.9105 2.2724l2.5 10C26.3222 28.1658 24.8901 30 22.9384 30H9.0615c-1.9517 0-3.3838-1.8342-2.9104-3.7276l2.5-10C8.985 14.9369 10.185 14 11.5615 14H13V5c0-1.6568 1.3431-3 3-3s3 1.3432 3 3m-4 0c0-.5523.4477-1 1-1s1 .4477 1 1v9h-2zm-3.4385 11h8.8769a1 1 0 0 1 .9702.7575L21.9692 19H10.0308l.5606-2.2425A1 1 0 0 1 11.5615 16m-2.0307 5-1.4394 5.7575C7.9336 27.3886 8.411 28 9.0615 28H11v-2c0-.5523.4477-1 1-1s1 .4477 1 1v2h9.9384c.6506 0 1.128-.6114.9702-1.2425L22.4692 21z"/></svg>
